X: 1
T: the Trip to Durrow
R: reel
D: Noel Hill: The Irish Concertina
Z: 1997 by John Chambers <jc:trillian.mit.edu>
M: C|
K: D
|: "D"D2FD ADFA | defd "G"B3c \
|1,3 dBBA dBBA | "D"FADE "A7"FEE2 \
:|2,4 dBBA "D"FAdB | "A7"AFGE "D"FDD2 :|
|: "D"d2de fdfg | afdf "Em"gfed \
|1,3 "A7"cdef gebe | gebe gfec \
:|2,4 "A7"cdef gbag | fdec "D"d4 :|
| "(A7)"{e}fdec "D"d3e | fdec "G"B3c | dBBA dBBA | "D"FADE "A7"FEE2 \
| "D"D2FD ADFA | defd "G"B3c |
| "G"dBBA "D"FAdB | "A7"AFGE "D"FDD2 |] y8 y8 y8 y8 y8 y8 y8 y8 y8 y8
